X:1
T:Sonata for Harpsichord
T:J. MysliveÄek
%%score { 1 | ( 2 3 ) }
L:1/8
Q:1/4=132
M:4/4
K:C
V:1 treble nm="Harpsichord" snm="Hch."
V:2 bass 
V:3 bass 
V:1
"^Allegro"!mf!"^Con Spirito" G/4A/4B/4 | c2 z2 z2!f! dc/d/ |!mf! e2 z2 z2!f! fe/f/ | %3
!mf! g z f z e z d z | c2 z2 z2!f! dc/d/ |!mf! e2 z2 z2!f! fe/f/ |!mf! g z f z e z d z | %7
 c2 z c/e/ g2 z e/g/ | c'2 g2 g3 f/e/ | f2 z d/f/ b2 z f/b/ | d'2 f2 Pf3 e/d/ | %11
 e2 g/f/e/d/ c>e d>f | e2 g/f/e/d/ c>e d>f | e z e/^f/g/e/ f z f/g/a/f/ | %14
 g2 z!f! b/a/4b/4!mf! c'[eg][df][ce] | [Bd]2 z!f! b/a/4b/4!mf! c'[eg][df][ce] | %16
 [Bd]2 [Bdg]2 [Bdg]2 z2 | z d/e/ dd/e/ dc z!f! ^f/e/4f/4 |!mf! gd/e/ dd/e/ dc z!f! ^f/e/4f/4 | %19
!mf! ga/^f/ ga/f/ gG/A/ Gf | eE/F/ Ed cD/E/ D[Ac] | [GB]2 z [gb] [gb]2 z [gb] | %22
 [gb]2 z [gb] [ga]2 z [ga] | [gb]2 z [gb] [gc']2 z [gc'] | [gd']2 [gd']2 [gd']2 !fermata!z2 | %25
 f^dee fdee | dBcc dBcc | [cda] z [cda] z a/^g/f/e/ d/c/B/A/ | %28
 B/d/c/B/ c/d/e/^f/ g/a/b/a/ g/=f/e/^d/ | e/^f/g/f/ g/e/d/c/ B2 A2 | G2 z B c/e/d/f/ e/g/^f/a/ | %31
 g2 z B c/B/c/A/ c/A/G/^F/ | G>D G>D G2 z2 :: z bag z gfe | [Aa]3 g!f! fe/f/!mf! d/e/f/g/ | %35
 [Aa]3 g!f! fe/f/!mf! d z | z agf z fed | [Gg]3 f!f! ed/e/!mf! c/d/e/f/ | %38
 [Gg]3 f!f! ed/e/!mf! c z | z [Ee]2 [Ff]2 [Ee]2 [^D^d] | z [Ee]2 [Ff]2 [Ee]2 [^D^d] | %41
 z [Ee] z [^D^d] z [Ee] z [Dd] | e2 z2 !fermata!z2 z/ G/A/B/ | c2 z2 z2!f! dc/d/ | %44
!mf! e2 z2 z2!f! fe/f/ |!mf! g z f z e z d z | [ce]2 z2 z2!f! dc/d/ |!mf! e2 z2 z2!f! fe/f/ | %48
!mf! g z f z e z d z | c2 z c/d/ g2 z e/g/ | c'2 g2 g3 f/e/ | f2 z d/f/ b2 z f/b/ | %52
 d'2 f2 f3 e/d/ | e2 z c/d/ g3 e/f/ | c'2 g2 g3 f/e/ | f/e/f/g/ f/g/a/f/ g/^f/g/a/ g/a/_b/g/ | %56
 a/g/a/_b/ c'/a/g/f/ e/d/e/f/ e/f/g/e/ | f/e/f/g/ f/g/a/f/ g/f/e/d/ c/_B/A/B/ | %58
 A/a/g/f/ e/d/^c/d/ a/g/f/e/ c/=c/_B/c/ | B2 z b/a/4b/4 c'[eg][df][ce] | %60
 [Bd]2 z Pb/a/4b/4 c'[eg][df][ce] | [Bd]2 [Bdg]2 [Bdg]2 z2 | z g/a/ gg/a/ gf z b/a/4b/4 | %63
 c'(g/a/) g(g/a/) gf z [Cb]/g/4c'/4 | c'd'/[Cb]/ c'd'/b/ c'c/d/ c_b | aA/_B/ Ag eG/A/ Gf | %66
 [ce]2 z [ce] [ce]2 z [ce] | [ce]2 z [ce] [cd]2 z [cd] | [ce]2 z [ce] [ce]2 z [ce] | %69
 [cg]2 [cg]2 [cg]2 !fermata!z2 | _b^gaa =b=gaa | geff geff | %72
 [dfd'] z [dfd'] z d'/c'/b/a/ g/f/e/d/ | e/g/f/e/ f/g/a/b/ c'/d'/e'/d'/ c'/_b/a/g/ | %74
 a/b/c'/b/ c'/a/g/f/ e2 d2 | c2 z e e/a/g/_b/ a/c'/=b/d'/ | c'2 z e f/e/f/e/ f/d/c/B/ | %77
 c>F c>G c2 !fermata!z2 ::[M:3/4]"^Minue" e>g f2 z d | e/f/^f/g/ =f2 z d | ee/d/ gg/f/ c'/b/a/g/ | %81
 f4 e2 | d>f B>d c>e | dd/f/ BB/d/ c>g | (3gab (3c'ba (3gfe | e2 d2 z2 ::!f! gf/e/!mf! ^c2 d2 | %87
!f! fe/d/!mf! B2 c2 | G4 FE/F/ | E2 z/ c/B/c/ d/c/B/A/ | G4 GF/G/ | [CE]2 [B,D]2 z2 | e>g f2 z d | %93
 e/f/^f/g/ =f2 z d | ee/c/ gg/e/ [df]2 | ee/c/ gg/e/ [g_b]2 |!f! ag/f/!mf! e2 d2 | %97
 c4 !fermata!z2 ::[K:Eb]"^Minore" z c z c z c | z d z a g=B | z =B/c/ z B/c/ z B/c/ | %101
 z d/e/ z f/a/ a/g/g/f/ | ec z G GG | AG z G gf | fe z G/A/ GG | AG z G gf | e3/2f/4g/4 .f.e .d.c | %107
!f! =B4 z2 ::!mf! ge z G GG | AF z f/e/ d/c/B/A/ |!f! G2 z!mf! G/A/ GG | AF z f/e/ d/c/B/A/ | %112
 G2 z G/A/ GG | GF z F GA | GF z d/c/ =B/A/G/F/ | E2 z c cc | cA z c cc | cG z c c=B | %118
 AG/F/ E2 D2 | C4 z2 ::[K:Bb][M:2/4]"^Rondo\nAndantino" dB ed | dc cd | ec fe | ed db | %124
!f! g2!mf! fb |!f! g2!mf! ff | ed cB | A2 A2 :: c3/2d/4e/4 dc | cB AB | e3/2f/4g/4 fe | ed ^cd | %132
 b>f f3/2g/4_a/4 | g>c c3/2d/4e/4 | d>f!f! ed/c/ | z B3 ::!mf! (3BdG (3^FAD | G2 A2 | %138
 (3BAG (3^F=ED | G2 A2 | (3BAG [Ac]2 | (3dcB [Ac]2 | (3BAG (3BAG | (3^FGA D2 | (3=Bcd (3GA_B | %145
 (3cde (3edc | (3A=Bc (3EGA | (3Bcd (3dcB | (3ABA (3B(cB) | (3c(dc) (3B(cB) | (3ABA (3BcB | %151
 (3cdc (3ded | (3edc (3BcA | G2 z2 :: dB ed | dc cd | ec fe | ed cb |!f! g2!mf! fb |!f! g2!mf! fe | %160
 ed cB | B2 A2 | c3/2d/4e/4 dc | cB AB | e3/2f/4g/4 fe | ed ^cd | b>f f3/2g/4a/4 | g>c c3/2d/4e/4 | %168
 c>e!f! ed/c/ | B3 z ::[K:Eb]!mf! [EG]>[FA] [GB][GB] | [GB]>e B2 | [eg][df] [ce][Bd] | %173
 [Ac][GB] [FA][EG] | [DF]>[EG] [FA][FA] | [FA]>[GB] [FA]2 | [fa][eg] [df][ce] | [Bd][Ac] [GB][FA] | %178
 [EG] z [FA] z | [EG] z [FA] z | [EG][GB] [FA][EG] | [EG]2 [DF]2 :: BA FD | DE E2 | FG AB | AG G2 | %186
 [gb][eg] [eg][df] | [ce][Bd] [Ac][GB] | [FA]>[EG] [FA]>[EG] | [FA]2 !fermata!z2 | [_DG] z [FA] z | %191
 [EG] z [FA] z | [EG]>[FA] [GB]>[GB] | c>d e/d/c/B/ | G2 F2 | E2 z2 :| %196
V:2
 G,/4A,/4B,/4 | CG,CG, CG,B,G, | CG,CG, CG,DG, | EG,DG, CG,B,G, | CG,CG, CG,B,G, | CG,CG, CG,DG, | %6
 EG,DG, CG,B,G, | [C,E,G,]4 [C,E,G,]4 | [C,E,G,]4 [C,E,G,]4 | [D,F,G,]4 [D,F,G,]4 | %10
 [B,,D,G,]4 [B,,D,G,]4 | [C,E,G,]2 z2 z2 [G,,B,,D,G,]2 | [C,E,G,]2 z2 z2 [G,,B,,D,G,]2 | %13
 [C,E,G,]4 [A,,C,E,]4 | G,,/G,/^F,/G,/ G,,/G,/F,/G,/ G,,/G,/F,/G,/ G,,/G,/F,/G,/ | %15
 G,,/G,/^F,/G,/ G,,/G,/F,/G,/ G,,/G,/F,/G,/ G,,/G,/F,/G,/ | G,,/G,/^F,/G,/ G,,/G,/F,/G,/ G,,2 z2 | %17
 G,2 B,2 A,2 C2 | B,2 G,2 A,2 [CD]2 | D4 D2 x2 | C,2 z ^G,, A,,2 z ^F,, | %21
 G,,/G,/^F,/G,/ G,,/G,/F,/G,/ E,,/E,/^D,/E,/ E,,/E,/D,/E,/ | %22
 B,,,/B,,/^A,,/B,,/ B,,,/B,,/A,,/B,,/ C,,/C,/B,,/C,/ C,,/C,/B,,/C,/ | %23
 D,,/D,/^C,/D,/ D,,/D,/C,/D,/ E,,/E,/^D,/E,/ E,,/E,/D,/E,/ | %24
 B,,,/B,,/^A,,/B,,/ B,,,/B,,/A,,/B,,/ B,,,2 !fermata!z2 | G8 | E8 | [F,D]4 [F,D]4 | %28
 [G,D][G,D][A,D][A,D] [B,D][B,D][B,D][B,D] | G,4 G,G,^F,F, | G,,G,G,,G, G,,G,G,,G, | %31
 G,,G,G,,G, G,,G,G,,G, | A,>D, A,>D, A,2 z2 :: z GFE z EDC | ^C,A,,C,A,, D,A,,D,A,, | %35
 ^C,A,,C,A,, D,A,,D, z | z FED z DCB, | B,,G,,B,,G,, C,G,,C,G,, | B,,G,,B,,G,, C,G,,C, z | %39
 [^G,B,]2 [A,C]2 [=G,B,]2 [F,A,]2 | [E,^G,]2 [A,C]2 [=G,B,]2 [F,A,]2 | %41
 [E,^G,]2 [F,A,]2 [E,G,]2 [F,A,]2 | [E,^G,]2 z2 !fermata!z2 z/ =G,/A,/B,/ | CG,CG, CG,B,G, | %44
 CG,CG, CG,DG, | EG,DG, CG,B,G, | CG,CG, CG,B,G, | CG,CG, CG,DG, | EG,DG, CG,B,G, | %49
 [C,E,G,]4 [C,E,G,]4 | [C,E,G,]4 [C,E,G,]4 | [D,F,G,]4 [D,F,G,]4 | [B,,D,G,]4 [B,,D,G,]4 | %53
 _B,, [_B,C][B,C][B,C] [B,C]4 | [_B,C]4 [B,C]4 | [A,C]2 z2 [E,C]2 z2 | [F,C]2 z2 [_B,C]2 z2 | %57
 [A,C]2 z2 [E,C]2 z2 | [F,C]2 z2 F,2 ^F,2 | %59
 G,,/G,/^F,/G,/ G,,/G,/F,/G,/ G,,/G,/F,/G,/ G,,/G,/F,/G,/ | %60
 G,,/G,/^F,/G,/ G,,/G,/F,/G,/ G,,/G,/F,/G,/ G,,/G,/F,/G,/ | G,,/G,/^F,/G,/ G,,/G,/F,/G,/ G,,2 z2 | %62
 C2 E2 D2 F2 | C2 E2 D2 F2 | EFEF [EG]2 z E, | F,2 z ^C, D,2 z _B,, | %66
 C,/C/B,/C/ C,/C/B,/C/ A,,/_A,/G,/A,/ A,,/A,/G,/A,/ | %67
 E,,/E,/^D,/E,/ E,,/E,/D,/E,/ F,,/F,/E,/F,/ F,,/F,/E,/F,/ | %68
 G,,/G,/^F,/G,/ G,,/G,/F,/G,/ A,,/A,/^G,/A,/ A,,/A,/G,/A,/ | %69
 F,,/E,/^D,/E,/ F,,/E,/D,/E,/ E,,2 !fermata!z2 |[K:treble] c8 | A8 |[K:bass] [B,,G,]4 [B,,G,]4 | %73
 G,4 G,G,CC | C4 CB,A,G, | C,C C,C C,C C,C | C,C C,C C,C C,C | %77
 C,>G,, C,>G,, [G,,C,E,]2 !fermata!z2 ::[M:3/4] G,6 | G,6 | [C,G,]2 [C,E,]2 [C,E,]2 | %81
 D,2 B,,2 C,2 | z2 G,4 | z2 G,4 | [E,C]2 [E,C]2 [E,C]2 | C2 B,2 z2 :: A,6 | z2 G,4 | %88
 B,,G,, B,,G,, B,,G,, | C,G,, C,G,, C,G,, | B,,G,, B,,G,, B,,G,, | C,2 G,2 z2 | G,6 | G,6 | %94
 [C,G,]2 z2 [B,,G,]2 | [C,G,]2 z2 [E,C]2 | [F,C]2 [G,C]2 [G,B,]2 | C2 C,2 !fermata!z2 :: %98
[K:Eb] C,2 E,2 A,2 | F,2 D,2 G,2 | C,2 E,2 A,2 | F,2 D,2 G,2 | C,E, C,E, C,E, | %103
 =B,,D, B,,D, B,,D, | C,E, C,E, C,E, | =B,,D, B,,D, B,,D, | C,2 F,2 ^F,2 | G,2 G,,2 z2 :: %108
 E,=B, E,B, E,B, | D,B, D,B, D,B, | E,B, E,B, E,B, | D,B, D,B, D,B, | E,B, E,B, E,B, | %113
 D,=B, D,B, D,B, | D,B, D,B, D,B, | C,E, C,E, C,E, | C,F, C,F, C,F, | C,E, C,E, C,=E, | %118
 F,2 G,2 G,,2 | C,2 C,,2 z2 ::[K:Bb][M:2/4] [B,,D,F,]2 z2 | [B,,E,G,]2 z2 | [A,,C,F,]2 z2 | %123
 [B,,F,]2 z2 | B,4 | B,4 | G,F, E,=E, | F,2 F,,2 :: F,4 | F,4 | F,4 | F,4 | D,B, D,B, | E,B, E,B, | %134
 F,B, F,A, | B,2 B,,2 :: z4 | (3B,DB, (3^F,A,D, | G,2 A,2 | (3B,A,G, (3^F,=E,D, | G,2 ^F,2 | %141
 G,2 [D,^F,]2 | G,2 E,2 | D,2 D,2 | G,2 ^F,2 | E,2 C,2 | F,2 E,2 | D,2 =B,,2 | G,4 | G,4 | G,4 | %151
 G,4 | G,3 ^F, | G,2 G,,2 :: [B,,D,F,]2 z2 | [C,E,G,]2 z2 | [A,,C,F,]2 z2 | [B,,F,]2 z2 | B,4 | %159
 B,4 | G,F, E,=E, | F,2 F,,2 | F,2 F,,2 | F,4 | F,4 | F,4 | D,B, D,B, | E,B, E,B, | F,B, F,B, | %169
 B,2 B,,2 ::[K:Eb] E,2 z2 | E,2 z2 | E,2 z2 | z4 | B,,2 z2 | B,,2 z2 | B,2 B,,2 | z4 | %178
 E,B,, D,B,, | E,B,, D,B,, | E,4 | B,2 B,,2 :: _A,4 | G,4 | D,4 | E,4 | E,2 z2 | z4 | A,,2 B,,2 | %189
 A,,2 !fermata!z2 | E,B,, D,B,, | E,B,, D,B,, | E,2 z2 | A,2 z2 | B,2 B,,2 | E,2 E,,2 :| %196
V:3
 x3/4 | x8 | x8 | x8 | x8 | x8 | x8 | x8 | x8 | x8 | x8 | x8 | x8 | x8 | x8 | x8 | x8 | x8 | x8 | %19
 B,CB,C B,2 z B,, | x8 | x8 | x8 | x8 | x8 | B,2 C2 B,2 C2 | ^G,2 A,2 G,2 A,2 | x8 | x8 | C,4 C,4 | %30
 x8 | x8 | x8 :: x8 | x8 | x8 | x8 | x8 | x8 | x8 | x8 | x8 | x8 | x8 | x8 | x8 | x8 | x8 | x8 | %49
 x8 | x8 | x8 | x8 | x8 | x8 | x8 | x8 | x8 | x8 | x8 | x8 | x8 | x8 | x8 | x8 | x8 | x8 | x8 | %68
 x8 | x8 |[K:treble] E2 F2 E2 F2 | ^C2 D2 C2 D2 |[K:bass] x8 | C,C,D,D, E,E,E,E, | F,4 G,4 | x8 | %76
 x8 | x8 ::[M:3/4] C,2 D,2 B,,2 | C,2 D,2 B,,2 | x6 | x6 | z2 F,2 E,2 | z2 F,2 E,2 | x6 | G,4 z2 :: %86
 z2 G,2 F,2 | z2 F,2 E,2 | x6 | x6 | x6 | x6 | C,2 D,2 B,,2 | C,2 D,2 B,,2 | x6 | x6 | x6 | x6 :: %98
[K:Eb] x6 | x6 | x6 | x6 | x6 | x6 | x6 | x6 | x6 | x6 :: x6 | x6 | x6 | x6 | x6 | x6 | x6 | x6 | %116
 x6 | x6 | x6 | x6 ::[K:Bb][M:2/4] x4 | x4 | x4 | x4 | E,2 D,2 | E,2 D,2 | x4 | x4 :: x4 | x4 | %130
 x4 | x4 | x4 | x4 | x4 | x4 :: x4 | x4 | x4 | x4 | x4 | x4 | x4 | x4 | x4 | x4 | x4 | x4 | %148
 C,2 D,2 | E,2 D,2 | C,2 D,2 | E,2 B,,2 | C,2 D,2 | x4 :: x4 | x4 | x4 | x4 | E,2 D,2 | E,2 D,2 | %160
 x4 | x4 | x4 | x4 | x4 | x4 | x4 | x4 | x4 | x4 ::[K:Eb] x4 | x4 | x4 | x4 | x4 | x4 | x4 | x4 | %178
 x4 | x4 | x4 | x4 :: x4 | x4 | x4 | x4 | x4 | x4 | x4 | x4 | x4 | x4 | x4 | x4 | x4 | x4 :| %196

